X:135
T:Ton, The
R:Reel
Z:John Chambers <jc@trillian.mit.edu>
M:4/4
L:1/4
Q:116
K:G
|: B/c/ | "G"dg gB/c/ | Bd dB/A/ | "G" GG "D7"AA | "G"B/A/B/c/ BB/c/ |!
| "G"dg gB/c/ | Bd dB/A/ | GG "D7"AA | "G"G3 :|!
|: B/c/ | "G"dg "C"ec | "G"dg "C"ec | "G"d>B "Am"AB | "D" A/G/A/B/ AB/c/|!
| "G"dg "C"ec | "G"dg "C"ec | "G"B/d/B/G/ "D7"A/c/A/F/ | "G"G G G  :|
